**kern	**silbe	**harmony	**phrase	**leadinstrument	**rhyme	**timestamp	**harte
*ICvox	*	*M4/4	*	*	*	*	*M4/4
*VRlead	*	*	*	*	*	*	*
*Hstimme	*	*	*	*	*	*	*
*C:	*	*B:	*	*	*	*	*B:
*M4/4	*	*	*	*	*	*	*
*clefG2	*	*	*	*	*	*	*
r;	.	1r;	.	r	.	0	N.C.
=1	=1	=1	=1	=1	=1	=1	=1
*>Letter>A	*>Letter>A	*>Letter>A	*>Letter>A	*>Letter>A	*>Letter>A	*>Letter>A	*>Letter>A
*>Label>Intro	*>Label>Intro	*>Label>Intro	*>Label>Intro	*>Label>Intro	*>Label>Intro	*>Label>Intro	*>Label>Intro
1r	.	2BM	newline	guitar	.	0.279	B:maj
.	.	4EM	.	guitar	.	1.119	E:maj
.	.	4AM	.	guitar	.	1.539	A:maj
=2	=2	=2	=2	=2	=2	=2	=2
1r	.	1F#Mm	.	guitar	.	1.959	F#:7
=3	=3	=3	=3	=3	=3	=3	=3
1r	.	2BM	.	guitar	.	3.64	B:maj
.	.	4EM	.	guitar	.	4.48	E:maj
.	.	4AM	.	guitar	.	4.9	A:maj
=4	=4	=4	=4	=4	=4	=4	=4
1r	.	1F#Mm	.	guitar	.	5.32	F#:7
=5	=5	=5	=5	=5	=5	=5	=5
*>Letter>B	*>Letter>B	*>Letter>B	*>Letter>B	*>Letter>B	*>Letter>B	*>Letter>B	*>Letter>B
*>Label>Verse	*>Label>Verse	*>Label>Verse	*>Label>Verse	*>Label>Verse	*>Label>Verse	*>Label>Verse	*>Label>Verse
8b	john-	1BM	newline	voice	.	7	B:maj
8a	-ny	.	.	.	a	.	.
8b	is	.	.	.	.	.	.
8a	a	.	.	.	.	.	.
4b	jo-	.	.	.	.	.	.
4dd	-ker	.	.	.	.	.	.
=6	=6	=6	=6	=6	=6	=6	=6
2.r	.	1BM	.	voice	.	8.664	B:maj
8r	.	.	.	.	.	.	.
8a	a	.	.	.	.	.	.
=7	=7	=7	=7	=7	=7	=7	=7
8b	ve-	1BM	.	voice	.	10.328	B:maj
8a	-ry	.	.	.	a	.	.
8b	fun-	.	.	.	(B	.	.
8a	-ny	.	.	.	a)	.	.
4b	jo-	.	.	.	.	.	.
4dd	-ker	.	.	.	.	.	.
=8	=8	=8	=8	=8	=8	=8	=8
2.r	.	1BM	.	voice	.	11.991	B:maj
8r	.	.	.	.	.	.	.
8g-	but	.	.	.	.	.	.
=9	=9	=9	=9	=9	=9	=9	=9
8a-	when	1EM	newline	voice	.	13.655	E:maj
8b	he	.	.	.	a	.	.
8b	jokes	.	.	.	.	.	.
8a-	my	.	.	.	.	.	.
4dd-	ho-	.	.	.	(B	.	.
4b	-ney	.	.	.	a)	.	.
=10	=10	=10	=10	=10	=10	=10	=10
2.r	.	1EM	.	voice	.	15.309	E:maj
8r	.	.	.	.	.	.	.
8g-	his	.	.	.	.	.	.
=11	=11	=11	=11	=11	=11	=11	=11
8a-	jo-	1BM	.	voice	.	16.962	B:maj
8b	-kin'	.	.	.	.	.	.
8b	ain't	.	.	.	.	.	.
8a-	so	.	.	.	.	.	.
4dd-	fun-	.	.	.	(B	.	.
4b	-ny	.	.	.	a)	.	.
=12	=12	=12	=12	=12	=12	=12	=12
1r	.	1BM	.	voice	.	18.616	B:maj
=13	=13	=13	=13	=13	=13	=13	=13
8dd-	john-	1F#M	newline	voice	.	20.269	F#:maj
8dd-	-ny	.	.	.	a	.	.
8dd-	is	.	.	.	.	.	.
8dd-	a	.	.	.	.	.	.
8dd-	jo-	.	.	.	.	.	.
8dd-	-ker	.	.	.	.	.	.
8dd-	that's	.	.	.	.	.	.
8dd-	a-	.	.	.	.	.	.
=14	=14	=14	=14	=14	=14	=14	=14
8dd	-try'in-	1EMm	.	voice	.	21.936	E:7
8dd	to	.	.	.	.	.	.
8dd	steal	.	.	.	A	.	.
8dd	my	.	.	.	.	.	.
8dd	ba-	.	.	.	.	.	.
8dd	-by	.	.	.	a	.	.
4r	.	.	.	.	.	.	.
=15	=15	=15	=15	=15	=15	=15	=15
*>Letter>A	*>Letter>A	*>Letter>A	*>Letter>A	*>Letter>A	*>Letter>A	*>Letter>A	*>Letter>A
*>Label>Trans	*>Label>Trans	*>Label>Trans	*>Label>Trans	*>Label>Trans	*>Label>Trans	*>Label>Trans	*>Label>Trans
1r	.	2BM	newline	guitar	.	23.602	B:maj
.	.	4EM	.	guitar	.	24.428	E:maj
.	.	4AM	.	guitar	.	24.84	A:maj
=16	=16	=16	=16	=16	=16	=16	=16
1r	.	1F#Mm	.	guitar	.	25.253	F#:7
=17	=17	=17	=17	=17	=17	=17	=17
*>Letter>B	*>Letter>B	*>Letter>B	*>Letter>B	*>Letter>B	*>Letter>B	*>Letter>B	*>Letter>B
*>Label>Verse	*>Label>Verse	*>Label>Verse	*>Label>Verse	*>Label>Verse	*>Label>Verse	*>Label>Verse	*>Label>Verse
8b	John-	1BM	newline	voice	.	26.905	B:maj
8a	-ny	.	.	.	a	.	.
8b	sings	.	.	.	A	.	.
8a	a	.	.	.	.	.	.
4b	love	.	.	.	.	.	.
4dd	song	.	.	.	C	.	.
=18	=18	=18	=18	=18	=18	=18	=18
1r	.	1BM	.	voice	.	28.586	B:maj
=19	=19	=19	=19	=19	=19	=19	=19
8b	sings	1BM	.	voice	A	30.267	B:maj
8a	the	.	.	.	.	.	.
8b	sweet-	.	.	.	A	.	.
8a	-est	.	.	.	.	.	.
4b	love	.	.	.	.	.	.
4dd	song	.	.	.	C	.	.
=20	=20	=20	=20	=20	=20	=20	=20
2.r	.	1BM	.	voice	.	31.948	B:maj
8r	.	.	.	.	.	.	.
8g-	but	.	.	.	.	.	.
=21	=21	=21	=21	=21	=21	=21	=21
8a-	when	1EM	newline	voice	.	33.63	E:maj
8b	he	.	.	.	a	.	.
8b	sings	.	.	.	A	.	.
8a-	to	.	.	.	.	.	.
4dd-	my	.	.	.	.	.	.
4b	gal	.	.	.	.	.	.
=22	=22	=22	=22	=22	=22	=22	=22
2.r	.	1EM	.	voice	.	35.299	E:maj
8r	.	.	.	.	.	.	.
8g-	to	.	.	.	.	.	.
=23	=23	=23	=23	=23	=23	=23	=23
8a-	me	1BM	.	voice	A	36.968	B:maj
8b	he's	.	.	.	.	.	.
8b	just	.	.	.	.	.	.
8a-	a	.	.	.	.	.	.
4dd-	wolf	.	.	.	.	.	.
4b	dog	.	.	.	C	.	.
=24	=24	=24	=24	=24	=24	=24	=24
1r	.	1BM	.	voice	.	38.637	B:maj
=25	=25	=25	=25	=25	=25	=25	=25
8dd-	john-	1F#M	newline	voice	.	40.306	F#:maj
8dd-	-ny	.	.	.	a	.	.
8dd-	wants	.	.	.	.	.	.
8dd-	to	.	.	.	.	.	.
8dd-	fly	.	.	.	.	.	.
8dd-	a-	.	.	.	.	.	.
8dd-	-way	.	.	.	.	.	.
8dd-	and	.	.	.	.	.	.
=26	=26	=26	=26	=26	=26	=26	=26
8dd	pup-	1EMm	.	voice	.	41.975	E:7
8dd	-py	.	.	.	a	.	.
8dd	love	.	.	.	.	.	.
8dd	my	.	.	.	.	.	.
8dd	ba-	.	.	.	.	.	.
8dd	-by	.	.	.	a	.	.
4r	.	.	.	.	.	.	.
=27	=27	=27	=27	=27	=27	=27	=27
*>Letter>A	*>Letter>A	*>Letter>A	*>Letter>A	*>Letter>A	*>Letter>A	*>Letter>A	*>Letter>A
*>Label>Trans	*>Label>Trans	*>Label>Trans	*>Label>Trans	*>Label>Trans	*>Label>Trans	*>Label>Trans	*>Label>Trans
1r	.	2BM	newline	guitar	.	43.644	B:maj
.	.	4EM	.	guitar	.	44.474	E:maj
.	.	4AM	.	guitar	.	44.89	A:maj
=28	=28	=28	=28	=28	=28	=28	=28
1r	.	1F#Mm	.	guitar	.	45.305	F#:7
=29	=29	=29	=29	=29	=29	=29	=29
*>Letter>C	*>Letter>C	*>Letter>C	*>Letter>C	*>Letter>C	*>Letter>C	*>Letter>C	*>Letter>C
*>Label>Chorus	*>Label>Chorus	*>Label>Chorus	*>Label>Chorus	*>Label>Chorus	*>Label>Chorus	*>Label>Chorus	*>Label>Chorus
4dd	hey	1EMm	newline	voice	.	46.967	E:7
4dd	bird	.	.	.	.	.	.
4b	dog	.	.	.	.	.	.
8b	get	.	.	.	.	.	.
8b	a-	.	.	.	.	.	.
=30	=30	=30	=30	=30	=30	=30	=30
8b	-way	1EMm	.	voice	.	48.678	E:7
8b	from	.	.	.	.	.	.
8b	my	.	.	.	.	.	.
8dd	quail	.	.	.	D	.	.
2r	.	.	.	.	.	.	.
=31	=31	=31	=31	=31	=31	=31	=31
4dd	hey	1BM	.	voice	.	50.388	B:maj
4dd	bird	.	.	.	.	.	.
8.b	dog	.	.	.	.	.	.
[16a	you're	.	.	.	.	.	.
8a]	_	.	.	.	.	.	.
[8b	on	.	.	.	.	.	.
=32	=32	=32	=32	=32	=32	=32	=32
8b]	_	1BM	.	voice	.	52.099	B:maj
8a	the	.	.	.	.	.	.
4b	wrong	.	.	.	.	.	.
4b	trail	.	.	.	D	.	.
4r	.	.	.	.	.	.	.
=33	=33	=33	=33	=33	=33	=33	=33
8b	bird	1F#M	newline	voice	.	53.81	F#:maj
4dd-	dog	.	.	.	.	.	.
8b	you	.	.	.	.	.	.
8dd-	bet-	.	.	.	.	.	.
8b	-ter	.	.	.	.	.	.
8dd-	leave	.	.	.	A	.	.
8b	my	.	.	.	.	.	.
=34	=34	=34	=34	=34	=34	=34	=34
8r	.	1EMm	.	voice	.	55.505	E:7
8dd	love-	.	.	.	(E	.	.
8r	.	.	.	.	.	.	.
8b	-y	.	.	.	a)	.	.
4dd-	dove	.	.	.	E	.	.
4b	a-	.	.	.	.	.	.
=35	=35	=35	=35	=35	=35	=35	=35
1ee-	-lone	1BM	.	voice	F	57.2	B:maj
=36	=36	=36	=36	=36	=36	=36	=36
1r	.	1BMm	.	voice	.	58.895	B:7
=37	=37	=37	=37	=37	=37	=37	=37
4dd	hey	1EMm	newline	voice	.	60.589	E:7
4dd	bird	.	.	.	.	.	.
4b	dog	.	.	.	.	.	.
8b	get	.	.	.	.	.	.
8b	a-	.	.	.	.	.	.
=38	=38	=38	=38	=38	=38	=38	=38
8b	-way	1EMm	.	voice	.	62.29	E:7
8b	from	.	.	.	.	.	.
8b	my	.	.	.	.	.	.
8dd	chick	.	.	.	G	.	.
2r	.	.	.	.	.	.	.
=39	=39	=39	=39	=39	=39	=39	=39
4dd	hey	1BM	.	voice	.	63.991	B:maj
4dd	bird	.	.	.	.	.	.
8b	dog	.	.	.	.	.	.
8a	you	.	.	.	.	.	.
8b	bet-	.	.	.	.	.	.
8a	-ter	.	.	.	.	.	.
=40	=40	=40	=40	=40	=40	=40	=40
8b	get	1BM	.	voice	.	65.692	B:maj
8a	a-	.	.	.	.	.	.
8b	-way	.	.	.	.	.	.
8b	quick	.	.	.	G	.	.
2r	.	.	.	.	.	.	.
=41	=41	=41	=41	=41	=41	=41	=41
8dd-	bird	1F#Mm	newline	voice	.	67.392	F#:7
8dd-	dog	.	.	.	.	.	.
8r	.	.	.	.	.	.	.
8b	you	.	.	.	.	.	.
8dd-	bet-	.	.	.	.	.	.
8b	-ter	.	.	.	.	.	.
8dd-	find	.	.	.	.	.	.
8b	a	.	.	.	.	.	.
=42	=42	=42	=42	=42	=42	=42	=42
8dd	chick-	1EMm	.	voice	G	69.13	E:7
8dd	-en	.	.	.	.	.	.
8dd	lit-	.	.	.	.	.	.
8dd	-tle	.	.	.	.	.	.
4b	of	.	.	.	.	.	.
4a	your	.	.	.	.	.	.
=43	=43	=43	=43	=43	=43	=43	=43
*>Letter>A	*>Letter>A	*>Letter>A	*>Letter>A	*>Letter>A	*>Letter>A	*>Letter>A	*>Letter>A
*>Label>Trans	*>Label>Trans	*>Label>Trans	*>Label>Trans	*>Label>Trans	*>Label>Trans	*>Label>Trans	*>Label>Trans
2b	own	2BM	newline	guitar	F	70.868	B:maj
2r	.	4EM	.	guitar	.	71.71	E:maj
.	.	4AM	.	guitar	.	72.131	A:maj
=44	=44	=44	=44	=44	=44	=44	=44
1r	.	1F#Mm	.	guitar	.	72.551	F#:7
=45	=45	=45	=45	=45	=45	=45	=45
1r	.	2BM	.	guitar	.	74.235	B:maj
.	.	4EM	.	guitar	.	75.077	E:maj
.	.	4AM	.	guitar	.	75.497	A:maj
=46	=46	=46	=46	=46	=46	=46	=46
1r	.	1F#Mm	.	guitar	.	75.918	F#:7
=47	=47	=47	=47	=47	=47	=47	=47
*>Letter>B	*>Letter>B	*>Letter>B	*>Letter>B	*>Letter>B	*>Letter>B	*>Letter>B	*>Letter>B
*>Label>Verse	*>Label>Verse	*>Label>Verse	*>Label>Verse	*>Label>Verse	*>Label>Verse	*>Label>Verse	*>Label>Verse
8b	John-	1BM	newline	voice	.	77.602	B:maj
8a	-ny	.	.	.	a	.	.
8b	kissed	.	.	.	.	.	.
8a	the	.	.	.	.	.	.
4b	teach-	.	.	.	(A	.	.
4dd	-er	.	.	.	h)	.	.
=48	=48	=48	=48	=48	=48	=48	=48
2.r	.	1BM	.	voice	.	79.288	B:maj
8r	.	.	.	.	.	.	.
8a	he	.	.	.	A	.	.
=49	=49	=49	=49	=49	=49	=49	=49
8b	tip-	1BM	.	voice	.	80.975	B:maj
8a	-toed	.	.	.	.	.	.
8b	up	.	.	.	.	.	.
8a	to	.	.	.	.	.	.
4b	reach	.	.	.	(A	.	.
4dd	her	.	.	.	h)	.	.
=50	=50	=50	=50	=50	=50	=50	=50
2.r	.	1BM	.	voice	.	82.661	B:maj
8r	.	.	.	.	.	.	.
8g-	well	.	.	.	.	.	.
=51	=51	=51	=51	=51	=51	=51	=51
8a-	he's	1EM	newline	voice	A	84.348	E:maj
8b	the	.	.	.	.	.	.
8b	teach-	.	.	.	(A	.	.
8a-	-er's	.	.	.	h)	.	.
4dd-	pet	.	.	.	I	.	.
4b	now	.	.	.	.	.	.
=52	=52	=52	=52	=52	=52	=52	=52
2.r	.	1EM	.	voice	.	86.025	E:maj
8r	.	.	.	.	.	.	.
8g-	what	.	.	.	.	.	.
=53	=53	=53	=53	=53	=53	=53	=53
8a-	he	1BM	.	voice	.	87.702	B:maj
8b	wants	.	.	.	.	.	.
8b	he	.	.	.	.	.	.
8a-	can	.	.	.	.	.	.
4dd-	get	.	.	.	I	.	.
4b	now	.	.	.	.	.	.
=54	=54	=54	=54	=54	=54	=54	=54
2.r	.	1BM	.	voice	.	89.379	B:maj
8r	.	.	.	.	.	.	.
8dd-	he	.	.	.	a	.	.
=55	=55	=55	=55	=55	=55	=55	=55
8dd-	ev-	1F#Mm	newline	voice	A	91.057	F#:7
8dd-	-en	.	.	.	.	.	.
8dd-	made	.	.	.	.	.	.
8dd-	the	.	.	.	.	.	.
8dd-	teach-	.	.	.	(A	.	.
8dd-	-er	.	.	.	h)	.	.
8dd-	let	.	.	.	I	.	.
8dd-	him	.	.	.	.	.	.
=56	=56	=56	=56	=56	=56	=56	=56
8dd	sit	1EMm	.	voice	.	92.735	E:7
8dd	next	.	.	.	I	.	.
8dd	to	.	.	.	.	.	.
8dd	my	.	.	.	.	.	.
8dd	ba-	.	.	.	.	.	.
8dd	-by	.	.	.	a	.	.
4r	.	.	.	.	.	.	.
=57	=57	=57	=57	=57	=57	=57	=57
*>Letter>A	*>Letter>A	*>Letter>A	*>Letter>A	*>Letter>A	*>Letter>A	*>Letter>A	*>Letter>A
*>Label>Trans	*>Label>Trans	*>Label>Trans	*>Label>Trans	*>Label>Trans	*>Label>Trans	*>Label>Trans	*>Label>Trans
1r	.	2BM	newline	guitar	.	94.414	B:maj
.	.	4EM	.	guitar	.	95.261	E:maj
.	.	4AM	.	guitar	.	95.684	A:maj
=58	=58	=58	=58	=58	=58	=58	=58
1r	.	1F#Mm	.	guitar	.	96.108	F#:7
=59	=59	=59	=59	=59	=59	=59	=59
*>Letter>C	*>Letter>C	*>Letter>C	*>Letter>C	*>Letter>C	*>Letter>C	*>Letter>C	*>Letter>C
*>Label>Chorus	*>Label>Chorus	*>Label>Chorus	*>Label>Chorus	*>Label>Chorus	*>Label>Chorus	*>Label>Chorus	*>Label>Chorus
4dd	hey	1EMm	newline	voice	.	97.802	E:7
4dd	bird	.	.	.	.	.	.
4b	dog	.	.	.	.	.	.
8b	get	.	.	.	.	.	.
8b	a-	.	.	.	.	.	.
=60	=60	=60	=60	=60	=60	=60	=60
8b	-way	1EMm	.	voice	.	99.501	E:7
8b	from	.	.	.	.	.	.
8b	my	.	.	.	.	.	.
8dd	quail	.	.	.	D	.	.
2r	.	.	.	.	.	.	.
=61	=61	=61	=61	=61	=61	=61	=61
4dd	hey	1BM	.	voice	.	101.199	B:maj
4dd	bird	.	.	.	.	.	.
8.b	dog	.	.	.	.	.	.
[16a	you're	.	.	.	.	.	.
8a]	_	.	.	.	.	.	.
[8b	on	.	.	.	.	.	.
=62	=62	=62	=62	=62	=62	=62	=62
8b]	_	1BM	.	voice	.	102.898	B:maj
8a	the	.	.	.	.	.	.
4b	wrong	.	.	.	.	.	.
4b	trail	.	.	.	D	.	.
4r	.	.	.	.	.	.	.
=63	=63	=63	=63	=63	=63	=63	=63
8b	bird	1F#Mm	newline	voice	.	104.596	F#:7
4dd-	dog	.	.	.	.	.	.
8b	you	.	.	.	.	.	.
8dd-	bet-	.	.	.	.	.	.
8b	-ter	.	.	.	.	.	.
8dd-	leave	.	.	.	A	.	.
8b	my	.	.	.	.	.	.
=64	=64	=64	=64	=64	=64	=64	=64
8r	.	1EMm	.	voice	.	106.28	E:7
8dd	love-	.	.	.	(E	.	.
8r	.	.	.	.	.	.	.
8b	-y	.	.	.	a)	.	.
4dd-	dove	.	.	.	(E	.	.
4b	a-	.	.	.	.	.	.
=65	=65	=65	=65	=65	=65	=65	=65
1ee-	-lone	1BM	.	voice	F	107.963	B:maj
=66	=66	=66	=66	=66	=66	=66	=66
1r	.	1BMm	.	voice	.	109.647	B:7
=67	=67	=67	=67	=67	=67	=67	=67
4dd	hey	1EMm	newline	voice	.	111.33	E:7
4dd	bird	.	.	.	.	.	.
4b	dog	.	.	.	.	.	.
8b	get	.	.	.	.	.	.
8b	a-	.	.	.	.	.	.
=68	=68	=68	=68	=68	=68	=68	=68
8b	-way	1EMm	.	voice	.	113.02	E:7
8b	from	.	.	.	.	.	.
8b	my	.	.	.	.	.	.
8dd	chick	.	.	.	G	.	.
2r	.	.	.	.	.	.	.
=69	=69	=69	=69	=69	=69	=69	=69
4dd	hey	1BM	.	voice	.	114.71	B:maj
4dd	bird	.	.	.	.	.	.
8b	dog	.	.	.	.	.	.
8a	you	.	.	.	.	.	.
8b	bet-	.	.	.	.	.	.
8a	-ter	.	.	.	.	.	.
=70	=70	=70	=70	=70	=70	=70	=70
8b	get	1BM	.	voice	.	116.399	B:maj
8a	a-	.	.	.	.	.	.
8b	-way	.	.	.	.	.	.
8b	quick	.	.	.	G	.	.
2r	.	.	.	.	.	.	.
=71	=71	=71	=71	=71	=71	=71	=71
8dd-	bird	1F#Mm	newline	voice	.	118.089	F#:7
8dd-	dog	.	.	.	.	.	.
8r	.	.	.	.	.	.	.
8b	you	.	.	.	.	.	.
8dd-	bet-	.	.	.	.	.	.
8b	-ter	.	.	.	.	.	.
8dd-	find	.	.	.	.	.	.
8b	a	.	.	.	.	.	.
=72	=72	=72	=72	=72	=72	=72	=72
8dd	chick-	1EMm	.	voice	G	119.797	E:7
8dd	-en	.	.	.	.	.	.
8dd	lit-	.	.	.	.	.	.
8dd	-tle	.	.	.	.	.	.
4b	of	.	.	.	.	.	.
4a	your	.	.	.	.	.	.
=73	=73	=73	=73	=73	=73	=73	=73
*>Letter>A	*>Letter>A	*>Letter>A	*>Letter>A	*>Letter>A	*>Letter>A	*>Letter>A	*>Letter>A
*>Label>Fadeout	*>Label>Fadeout	*>Label>Fadeout	*>Label>Fadeout	*>Label>Fadeout	*>Label>Fadeout	*>Label>Fadeout	*>Label>Fadeout
2b	own	2BM	newline	guitar	F	121.505	B:maj
2r	.	4EM	.	guitar	.	122.356	E:maj
.	.	4AM	.	guitar	.	122.782	A:maj
=74	=74	=74	=74	=74	=74	=74	=74
1r	.	1F#Mm	.	guitar	.	123.208	F#:7
=75	=75	=75	=75	=75	=75	=75	=75
1r	.	2BM	.	guitar	.	124.911	B:maj
.	.	4EM	.	guitar	.	125.762	E:maj
.	.	4AM	.	guitar	.	126.188	A:maj
=76	=76	=76	=76	=76	=76	=76	=76
1r	.	1F#Mm	.	guitar	.	126.613	F#:7
=77	=77	=77	=77	=77	=77	=77	=77
1r	.	2BM	newline	guitar	.	128.316	B:maj
.	.	4EM	.	guitar	.	129.024	E:maj
.	.	4AM	.	guitar	.	129.378	A:maj
=78	=78	=78	=78	=78	=78	=78	=78
1r	.	1F#Mm	.	guitar	.	129.732	F#:7
=79	=79	=79	=79	=79	=79	=79	=79
1r	.	2BM	.	guitar	.	131.147	B:maj
.	.	4EM	.	guitar	.	131.855	E:maj
.	.	4AM	.	guitar	.	132.209	A:maj
r;	.	1r;	.	r	.	132.563	N.C.
r;	.	1r;	.	r	.	137.456	N.C.
*-	*-	*-	*-	*-	*-	*-	*-
!!!BillboardChartDate: 1958/12/01, 1958/08/18
!!!BillboardPeak: 2, 2
!!!BillboardWeeksOnChart: 19, 19
!!!COC: The Everly Brothers
!!!ENC: Nathaniel Condit-Schultz
!!!EST: Awating manual error checking and editing.
!!!OTL: Bird Dog
!!!RDF**chordsym: original McGill chord annotation + (implied pitch class set, with bass pitch in first position)
!!!RDF**harmony: **recip + pitch class of root + harmonic quality
!!!RDF**leadinstrument: original McGill primary instrumentation annotation
!!!RDF**phrase: newline = linebreak in original McGill transcription
!!!RDF**timestamp: McGill audio timestamp in seconds
!!!RDT: 2017/01/12/
!!!SampleActualRank: 78, 17
!!!SampleID#: 322, 733
!!!SampleTargetRank: 79, 16
